Newaita-dark/apps/24/muon.svg

<?xml version="1.0" encoding="UTF-8"?>
<svg xmlns="http://www.w3.org/2000/svg" xmlns:xlink="http://www.w3.org/1999/xlink" width="24pt" height="24pt" viewBox="0 0 24 24" version="1.1">
<defs>
<linearGradient id="linear0" gradientUnits="userSpaceOnUse" x1="254" y1="233.5" x2="254" y2="254.666672" gradientTransform="matrix(0.0468795,0,0,0.0468795,-0.0000028613,10.079089)">
<stop offset="0" style="stop-color:rgb(0%,0%,0%);stop-opacity:0.27451;"/>
<stop offset="1" style="stop-color:rgb(0%,0%,0%);stop-opacity:0;"/>
</linearGradient>
<radialGradient id="radial0" gradientUnits="userSpaceOnUse" cx="450.908936" cy="189.579361" fx="450.908936" fy="189.579361" r="21.166656" gradientTransform="matrix(0.000000130628,-0.0585994,-0.105479,-0.0000000761539,39.842197,47.696499)">
<stop offset="0" style="stop-color:rgb(0%,0%,0%);stop-opacity:0.313725;"/>
<stop offset="0.222222" style="stop-color:rgb(0%,0%,0%);stop-opacity:0.27451;"/>
<stop offset="1" style="stop-color:rgb(0%,0%,0%);stop-opacity:0;"/>
</radialGradient>
<radialGradient id="radial1" gradientUnits="userSpaceOnUse" cx="450.908936" cy="189.579361" fx="450.908936" fy="189.579361" r="21.166656" gradientTransform="matrix(-0.000000130628,0.0585994,0.105479,0.0000000761539,-15.90339,-5.645609)">
<stop offset="0" style="stop-color:rgb(0%,0%,0%);stop-opacity:0.313725;"/>
<stop offset="0.222222" style="stop-color:rgb(0%,0%,0%);stop-opacity:0.27451;"/>
<stop offset="1" style="stop-color:rgb(0%,0%,0%);stop-opacity:0;"/>
</radialGradient>
<radialGradient id="radial2" gradientUnits="userSpaceOnUse" cx="450.908936" cy="189.579361" fx="450.908936" fy="189.579361" r="21.166656" gradientTransform="matrix(-0.000000130628,-0.0585994,0.105479,-0.0000000761539,-15.90339,47.696499)">
<stop offset="0" style="stop-color:rgb(0%,0%,0%);stop-opacity:0.313725;"/>
<stop offset="0.222222" style="stop-color:rgb(0%,0%,0%);stop-opacity:0.27451;"/>
<stop offset="1" style="stop-color:rgb(0%,0%,0%);stop-opacity:0;"/>
</radialGradient>
<radialGradient id="radial3" gradientUnits="userSpaceOnUse" cx="450.908936" cy="189.579361" fx="450.908936" fy="189.579361" r="21.166656" gradientTransform="matrix(0.000000130628,0.0585994,-0.105479,0.0000000761539,39.842196,-5.64561)">
<stop offset="0" style="stop-color:rgb(0%,0%,0%);stop-opacity:0.313725;"/>
<stop offset="0.222222" style="stop-color:rgb(0%,0%,0%);stop-opacity:0.27451;"/>
<stop offset="1" style="stop-color:rgb(0%,0%,0%);stop-opacity:0;"/>
</radialGradient>
<linearGradient id="linear1" gradientUnits="userSpaceOnUse" x1="254" y1="-168.666656" x2="254" y2="233.5" gradientTransform="matrix(0.0468795,0,0,0.0468795,0,10.079087)">
<stop offset="0" style="stop-color:rgb(73.72549%,66.666667%,64.313725%);stop-opacity:1;"/>
<stop offset="1" style="stop-color:rgb(63.137255%,53.333333%,49.803922%);stop-opacity:1;"/>
</linearGradient>
<linearGradient id="linear2" gradientUnits="userSpaceOnUse" x1="254" y1="138.250015" x2="254" y2="-168.666672" gradientTransform="matrix(0.0468795,0,0,0.0468795,0,10.079086)">
<stop offset="0" style="stop-color:rgb(40%,73.333333%,41.568627%);stop-opacity:1;"/>
<stop offset="1" style="stop-color:rgb(64.705882%,83.921569%,65.490196%);stop-opacity:1;"/>
</linearGradient>
</defs>
<g id="surface1">
<path style=" stroke:none;fill-rule:nonzero;fill:url(#linear0);" d="M 3.84375 21.027344 L 20.09375 21.027344 L 20.09375 22.019531 L 3.84375 22.019531 Z M 3.84375 21.027344 "/>
<path style=" stroke:none;fill-rule:nonzero;fill:url(#radial0);" d="M 20.09375 21.027344 L 22.078125 21.027344 L 22.078125 20.03125 L 20.09375 20.03125 Z M 20.09375 21.027344 "/>
<path style=" stroke:none;fill-rule:nonzero;fill:url(#radial1);" d="M 3.84375 21.027344 L 1.859375 21.027344 L 1.859375 22.019531 L 3.84375 22.019531 Z M 3.84375 21.027344 "/>
<path style=" stroke:none;fill-rule:nonzero;fill:url(#radial2);" d="M 3.84375 21.027344 L 1.859375 21.027344 L 1.859375 20.03125 L 3.84375 20.03125 Z M 3.84375 21.027344 "/>
<path style=" stroke:none;fill-rule:nonzero;fill:url(#radial3);" d="M 20.09375 21.027344 L 22.078125 21.027344 L 22.078125 22.019531 L 20.09375 22.019531 Z M 20.09375 21.027344 "/>
<path style=" stroke:none;fill-rule:nonzero;fill:url(#linear1);" d="M 2.730469 2.171875 L 21.085938 2.171875 C 21.496094 2.171875 21.832031 2.503906 21.832031 2.917969 L 21.832031 20.28125 C 21.832031 20.691406 21.496094 21.027344 21.085938 21.027344 L 2.730469 21.027344 C 2.316406 21.027344 1.984375 20.691406 1.984375 20.28125 L 1.984375 2.917969 C 1.984375 2.503906 2.316406 2.171875 2.730469 2.171875 Z M 2.730469 2.171875 "/>
<path style=" stroke:none;fill-rule:nonzero;fill:rgb(0%,0%,0%);fill-opacity:0.235294;" d="M 1.984375 20.09375 L 1.984375 20.28125 C 1.984375 20.695312 2.316406 21.027344 2.730469 21.027344 L 21.085938 21.027344 C 21.5 21.027344 21.832031 20.695312 21.832031 20.28125 L 21.832031 20.09375 C 21.832031 20.507812 21.5 20.839844 21.085938 20.839844 L 2.730469 20.839844 C 2.316406 20.839844 1.984375 20.507812 1.984375 20.09375 Z M 1.984375 20.09375 "/>
<path style=" stroke:none;fill-rule:nonzero;fill:rgb(0%,0%,0%);fill-opacity:0.196078;" d="M 1.984375 18.046875 L 21.832031 18.046875 L 21.832031 18.171875 L 1.984375 18.171875 Z M 1.984375 18.046875 "/>
<path style=" stroke:none;fill-rule:nonzero;fill:rgb(90.196079%,90.196079%,90.196079%);fill-opacity:0.588235;" d="M 1.984375 18.171875 L 21.832031 18.171875 L 21.832031 18.296875 L 1.984375 18.296875 Z M 1.984375 18.171875 "/>
<path style=" stroke:none;fill-rule:nonzero;fill:rgb(12.941177%,12.941177%,12.941177%);fill-opacity:0.992157;" d="M 1.984375 18.109375 L 21.832031 18.109375 L 21.832031 18.234375 L 1.984375 18.234375 Z M 1.984375 18.109375 "/>
<path style=" stroke:none;fill-rule:nonzero;fill:rgb(90.196079%,90.196079%,90.196079%);fill-opacity:0.588235;" d="M 2.976562 2.171875 C 2.425781 2.171875 1.984375 2.613281 1.984375 3.164062 L 1.984375 3.289062 C 1.984375 2.738281 2.425781 2.296875 2.976562 2.296875 L 20.839844 2.296875 C 21.386719 2.296875 21.832031 2.738281 21.832031 3.289062 L 21.832031 3.164062 C 21.832031 2.613281 21.386719 2.171875 20.839844 2.171875 Z M 2.976562 2.171875 "/>
<path style=" stroke:none;fill-rule:nonzero;fill:url(#linear2);" d="M 2.730469 2.171875 C 2.316406 2.171875 1.984375 2.503906 1.984375 2.917969 L 1.984375 4.902344 C 1.984375 4.988281 2 5.070312 2.027344 5.148438 L 8.929688 5.148438 C 9.207031 5.148438 9.425781 5.371094 9.425781 5.644531 L 9.425781 11.597656 L 7.9375 11.597656 C 7.496094 11.597656 7.277344 12.132812 7.585938 12.445312 L 11.558594 16.414062 C 11.75 16.609375 12.0625 16.609375 12.257812 16.414062 L 16.226562 12.445312 C 16.539062 12.132812 16.316406 11.597656 15.875 11.597656 L 14.386719 11.597656 L 14.386719 5.644531 C 14.386719 5.371094 14.609375 5.148438 14.882812 5.148438 L 21.789062 5.148438 C 21.816406 5.070312 21.832031 4.988281 21.832031 4.902344 L 21.832031 2.917969 C 21.832031 2.503906 21.5 2.171875 21.085938 2.171875 Z M 2.730469 2.171875 "/>
<path style=" stroke:none;fill-rule:nonzero;fill:rgb(100%,100%,100%);fill-opacity:0.392157;" d="M 2.730469 2.171875 C 2.316406 2.171875 1.984375 2.503906 1.984375 2.917969 L 1.984375 3.164062 C 1.984375 2.753906 2.316406 2.421875 2.730469 2.421875 L 21.085938 2.421875 C 21.5 2.421875 21.832031 2.753906 21.832031 3.164062 L 21.832031 2.917969 C 21.832031 2.503906 21.5 2.171875 21.085938 2.171875 Z M 7.9375 11.597656 C 7.589844 11.597656 7.378906 11.929688 7.457031 12.222656 C 7.511719 12.015625 7.6875 11.847656 7.9375 11.847656 L 9.425781 11.847656 L 9.425781 11.597656 Z M 14.386719 11.597656 L 14.386719 11.847656 L 15.875 11.847656 C 16.125 11.847656 16.304688 12.015625 16.355469 12.222656 C 16.433594 11.929688 16.222656 11.597656 15.875 11.597656 Z M 14.386719 11.597656 "/>
<path style=" stroke:none;fill-rule:nonzero;fill:rgb(12.941177%,12.941177%,12.941177%);fill-opacity:1;" d="M 2.730469 2.101562 C 2.277344 2.101562 1.914062 2.464844 1.914062 2.917969 L 1.914062 20.28125 C 1.914062 20.730469 2.277344 21.097656 2.730469 21.097656 L 21.085938 21.097656 C 21.535156 21.097656 21.902344 20.730469 21.902344 20.28125 L 21.902344 2.917969 C 21.902344 2.464844 21.535156 2.101562 21.085938 2.101562 Z M 2.730469 2.242188 L 21.085938 2.242188 C 21.460938 2.242188 21.761719 2.542969 21.761719 2.917969 L 21.761719 20.28125 C 21.761719 20.65625 21.460938 20.957031 21.085938 20.957031 L 2.730469 20.957031 C 2.355469 20.957031 2.054688 20.65625 2.054688 20.28125 L 2.054688 2.917969 C 2.054688 2.542969 2.355469 2.242188 2.730469 2.242188 Z M 2.730469 2.242188 "/>
<path style=" stroke:none;fill-rule:nonzero;fill:rgb(0%,0%,0%);fill-opacity:0.235294;" d="M 1.984375 4.652344 L 1.984375 4.902344 C 1.984375 4.988281 2 5.070312 2.027344 5.148438 L 8.929688 5.148438 C 9.207031 5.148438 9.425781 5.371094 9.425781 5.644531 L 9.425781 5.398438 C 9.425781 5.121094 9.207031 4.902344 8.929688 4.902344 L 2.027344 4.902344 C 2 4.824219 1.984375 4.738281 1.984375 4.652344 Z M 21.832031 4.652344 C 21.832031 4.738281 21.816406 4.824219 21.789062 4.902344 L 14.882812 4.902344 C 14.609375 4.902344 14.386719 5.121094 14.386719 5.398438 L 14.386719 5.644531 C 14.386719 5.371094 14.609375 5.148438 14.882812 5.148438 L 21.789062 5.148438 C 21.816406 5.070312 21.832031 4.988281 21.832031 4.902344 Z M 7.457031 11.972656 C 7.417969 12.132812 7.453125 12.308594 7.585938 12.445312 L 11.558594 16.414062 C 11.75 16.609375 12.0625 16.609375 12.257812 16.414062 L 16.226562 12.445312 C 16.363281 12.308594 16.398438 12.132812 16.355469 11.972656 C 16.335938 12.054688 16.292969 12.128906 16.226562 12.195312 L 12.257812 16.167969 C 12.0625 16.359375 11.75 16.359375 11.558594 16.167969 L 7.585938 12.195312 C 7.519531 12.128906 7.480469 12.054688 7.457031 11.972656 Z M 7.457031 11.972656 "/>
<path style=" stroke:none;fill-rule:nonzero;fill:rgb(12.941177%,12.941177%,12.941177%);fill-opacity:1;" d="M 2.730469 2.101562 C 2.277344 2.101562 1.914062 2.464844 1.914062 2.917969 L 1.914062 4.902344 C 1.914062 4.996094 1.929688 5.085938 1.960938 5.171875 L 1.976562 5.21875 L 8.929688 5.21875 C 9.167969 5.21875 9.355469 5.40625 9.355469 5.644531 L 9.355469 11.527344 L 7.9375 11.527344 C 7.6875 11.527344 7.496094 11.683594 7.414062 11.878906 C 7.335938 12.074219 7.363281 12.320312 7.539062 12.496094 L 11.507812 16.464844 C 11.726562 16.683594 12.085938 16.683594 12.308594 16.464844 L 16.277344 12.496094 C 16.453125 12.320312 16.480469 12.074219 16.398438 11.878906 C 16.316406 11.683594 16.125 11.527344 15.875 11.527344 L 14.457031 11.527344 L 14.457031 5.644531 C 14.457031 5.40625 14.648438 5.21875 14.882812 5.21875 L 21.835938 5.21875 L 21.855469 5.171875 C 21.882812 5.085938 21.902344 4.996094 21.902344 4.902344 L 21.902344 2.917969 C 21.902344 2.464844 21.535156 2.101562 21.085938 2.101562 Z M 2.730469 2.242188 L 21.085938 2.242188 C 21.460938 2.242188 21.761719 2.542969 21.761719 2.917969 L 21.761719 4.902344 C 21.761719 4.960938 21.75 5.023438 21.734375 5.078125 L 14.882812 5.078125 C 14.570312 5.078125 14.316406 5.332031 14.316406 5.644531 L 14.316406 11.667969 L 15.875 11.667969 C 16.070312 11.667969 16.207031 11.785156 16.269531 11.933594 C 16.332031 12.082031 16.3125 12.257812 16.175781 12.394531 L 12.207031 16.363281 C 12.042969 16.53125 11.773438 16.53125 11.605469 16.363281 L 7.636719 12.394531 C 7.5 12.257812 7.484375 12.082031 7.546875 11.933594 C 7.605469 11.785156 7.746094 11.667969 7.9375 11.667969 L 9.496094 11.667969 L 9.496094 5.644531 C 9.496094 5.332031 9.242188 5.078125 8.929688 5.078125 L 2.082031 5.078125 C 2.066406 5.023438 2.054688 4.960938 2.054688 4.902344 L 2.054688 2.917969 C 2.054688 2.542969 2.355469 2.242188 2.730469 2.242188 Z M 2.730469 2.242188 "/>
</g>
</svg>

<svg xmlns="http://www.w3.org/2000/svg" width="32" height="32" viewBox="0 0 24 24"><defs><linearGradient id="a" gradientUnits="userSpaceOnUse" x1="254" y1="233.5" x2="254" y2="254.667" gradientTransform="matrix(.04688 0 0 .04688 0 10.08)"><stop offset="0" stop-opacity=".275"/><stop offset="1" stop-opacity="0"/></linearGradient><radialGradient id="b" gradientUnits="userSpaceOnUse" cx="450.909" cy="189.579" fx="450.909" fy="189.579" r="21.167" gradientTransform="matrix(0 -.0586 -.10548 0 39.842 47.696)"><stop offset="0" stop-opacity=".314"/><stop offset=".222" stop-opacity=".275"/><stop offset="1" stop-opacity="0"/></radialGradient><radialGradient id="c" gradientUnits="userSpaceOnUse" cx="450.909" cy="189.579" fx="450.909" fy="189.579" r="21.167" gradientTransform="matrix(0 .0586 .10548 0 -15.903 -5.646)"><stop offset="0" stop-opacity=".314"/><stop offset=".222" stop-opacity=".275"/><stop offset="1" stop-opacity="0"/></radialGradient><radialGradient id="d" gradientUnits="userSpaceOnUse" cx="450.909" cy="189.579" fx="450.909" fy="189.579" r="21.167" gradientTransform="matrix(0 -.0586 .10548 0 -15.903 47.696)"><stop offset="0" stop-opacity=".314"/><stop offset=".222" stop-opacity=".275"/><stop offset="1" stop-opacity="0"/></radialGradient><radialGradient id="e" gradientUnits="userSpaceOnUse" cx="450.909" cy="189.579" fx="450.909" fy="189.579" r="21.167" gradientTransform="matrix(0 .0586 -.10548 0 39.842 -5.646)"><stop offset="0" stop-opacity=".314"/><stop offset=".222" stop-opacity=".275"/><stop offset="1" stop-opacity="0"/></radialGradient><linearGradient id="f" gradientUnits="userSpaceOnUse" x1="254" y1="-168.667" x2="254" y2="233.5" gradientTransform="matrix(.04688 0 0 .04688 0 10.08)"><stop offset="0" stop-color="#bcaaa4"/><stop offset="1" stop-color="#a1887f"/></linearGradient><linearGradient id="g" gradientUnits="userSpaceOnUse" x1="254" y1="138.25" x2="254" y2="-168.667" gradientTransform="matrix(.04688 0 0 .04688 0 10.08)"><stop offset="0" stop-color="#66bb6a"/><stop offset="1" stop-color="#a5d6a7"/></linearGradient></defs><path d="M3.844 21.027h16.25v.993H3.844zm0 0" fill="url(#a)"/><path d="M20.094 21.027h1.984v-.996h-1.984zm0 0" fill="url(#b)"/><path d="M3.844 21.027H1.859v.993h1.985zm0 0" fill="url(#c)"/><path d="M3.844 21.027H1.859v-.996h1.985zm0 0" fill="url(#d)"/><path d="M20.094 21.027h1.984v.993h-1.984zm0 0" fill="url(#e)"/><path d="M2.73 2.172h18.356c.41 0 .746.332.746.746v17.363c0 .41-.336.746-.746.746H2.73a.746.746 0 0 1-.746-.746V2.918c0-.414.332-.746.746-.746zm0 0" fill="url(#f)"/><path d="M1.984 20.094v.187c0 .414.332.746.746.746h18.356a.744.744 0 0 0 .746-.746v-.187a.744.744 0 0 1-.746.746H2.73a.744.744 0 0 1-.746-.746zm0 0" fill-opacity=".235"/><path d="M1.984 18.047h19.848v.125H1.984zm0 0" fill-opacity=".196"/><path d="M1.984 18.172h19.848v.125H1.984zm0 0" fill="#e6e6e6" fill-opacity=".588"/><path d="M1.984 18.11h19.848v.124H1.984zm0 0" fill="#212121" fill-opacity=".992"/><path d="M2.977 2.172a.989.989 0 0 0-.993.992v.125c0-.55.442-.992.993-.992H20.84c.547 0 .992.441.992.992v-.125a.991.991 0 0 0-.992-.992zm0 0" fill="#e6e6e6" fill-opacity=".588"/><path d="M2.73 2.172a.744.744 0 0 0-.746.746v1.984a.74.74 0 0 0 .043.246H8.93c.277 0 .496.223.496.497v5.953H7.937a.498.498 0 0 0-.351.847l3.973 3.97a.49.49 0 0 0 .699 0l3.969-3.97a.497.497 0 0 0-.352-.847h-1.488V5.645c0-.274.222-.497.496-.497h6.906a.74.74 0 0 0 .043-.246V2.918a.744.744 0 0 0-.746-.746zm0 0" fill="url(#g)"/><path d="M2.73 2.172a.744.744 0 0 0-.746.746v.246c0-.41.332-.742.746-.742h18.356c.414 0 .746.332.746.742v-.246a.744.744 0 0 0-.746-.746zm5.208 9.426a.498.498 0 0 0-.481.625.49.49 0 0 1 .48-.375h1.489v-.25zm6.449 0v.25h1.488c.25 0 .43.168.48.375a.498.498 0 0 0-.48-.625zm0 0" fill="#fff" fill-opacity=".392"/><path d="M2.73 2.102a.814.814 0 0 0-.816.816v17.363c0 .45.363.817.816.817h18.356c.45 0 .816-.368.816-.817V2.918a.816.816 0 0 0-.816-.816zm0 .14h18.356c.375 0 .676.301.676.676v17.363c0 .375-.301.676-.676.676H2.73a.674.674 0 0 1-.675-.676V2.918c0-.375.3-.676.675-.676zm0 0" fill="#212121"/><path d="M1.984 4.652v.25a.74.74 0 0 0 .043.246H8.93c.277 0 .496.223.496.497v-.247a.492.492 0 0 0-.496-.496H2.027a.764.764 0 0 1-.043-.25zm19.848 0a.764.764 0 0 1-.043.25h-6.906a.494.494 0 0 0-.496.496v.247c0-.274.222-.497.496-.497h6.906a.74.74 0 0 0 .043-.246zm-14.375 7.32a.497.497 0 0 0 .129.473l3.973 3.97a.49.49 0 0 0 .699 0l3.969-3.97a.479.479 0 0 0 .128-.472.465.465 0 0 1-.128.222l-3.97 3.973a.497.497 0 0 1-.698 0l-3.973-3.973a.498.498 0 0 1-.129-.222zm0 0" fill-opacity=".235"/><path d="M2.73 2.102a.814.814 0 0 0-.816.816v1.984c0 .094.016.184.047.27l.016.047H8.93c.238 0 .425.187.425.426v5.882H7.937a.566.566 0 0 0-.398.97l3.969 3.968a.57.57 0 0 0 .8 0l3.97-3.969a.561.561 0 0 0 .12-.617.566.566 0 0 0-.523-.352h-1.418V5.645c0-.239.191-.426.426-.426h6.953l.02-.047a.888.888 0 0 0 .046-.27V2.918a.816.816 0 0 0-.816-.816zm0 .14h18.356c.375 0 .676.301.676.676v1.984a.66.66 0 0 1-.028.176h-6.851a.567.567 0 0 0-.567.567v6.023h1.559c.195 0 .332.117.395.266a.41.41 0 0 1-.094.46l-3.969 3.97a.422.422 0 0 1-.602 0l-3.968-3.97a.408.408 0 0 1-.09-.46.413.413 0 0 1 .39-.266h1.56V5.645a.567.567 0 0 0-.567-.567H2.082a.66.66 0 0 1-.027-.176V2.918c0-.375.3-.676.675-.676zm0 0" fill="#212121"/></svg>
